src/app/client/src/assets/images/Recovery.svg

<?xml version="1.0" encoding="UTF-8"?>
<svg width="14px" height="14px" viewBox="0 0 14 14" version="1.1" xmlns="http://www.w3.org/2000/svg" xmlns:xlink="http://www.w3.org/1999/xlink">
    <!-- Generator: sketchtool 52.6 (67491) - http://www.bohemiancoding.com/sketch -->
    <title>31237E6B-781B-4B8D-8301-2604A5FB7E02</title>
    <desc>Created with sketchtool.</desc>
    <g id="Merge-Account" stroke="none" stroke-width="1" fill="none" fill-rule="evenodd">
        <g id="Confirm-Merge" transform="translate(-601.000000, -642.000000)" fill="#9B9B9B" fill-rule="nonzero">
            <g id="Recovery" transform="translate(601.000000, 642.000000)">
                <path d="M6.91903786,0.000303637465 C8.73157406,-0.0162836805 10.4443376,0.647209038 11.7746394,1.87467057 L11.7746394,1.32728907 C11.7746394,1.12824126 11.9242984,0.978955397 12.1238437,0.978955397 C12.3233889,0.978955397 12.4730479,1.12824126 12.4730479,1.32728907 L12.4896766,2.72062378 C12.4896766,2.9196716 12.3400177,3.06895746 12.1404724,3.06895746 L10.7436555,3.08554478 C10.7436555,3.08554478 10.7436555,3.08554478 10.7436555,3.08554478 C10.5441103,3.08554478 10.3944513,2.93625892 10.3944513,2.7372111 C10.3944513,2.53816329 10.5441103,2.38887742 10.7436555,2.38887742 L11.2757763,2.38887742 C10.0951334,1.29411444 8.56528634,0.71355831 6.93566663,0.730145628 C5.23953183,0.71355831 3.67642722,1.39363835 2.49578437,2.58792524 C0.799649573,4.32959363 0.250900081,6.81769132 1.08233871,9.1067412 C1.1488538,9.2892017 1.04908116,9.48824951 0.866164663,9.55459879 C0.832907118,9.5711861 0.783020801,9.5711861 0.749763256,9.5711861 C0.600104303,9.5711861 0.467074123,9.48824951 0.417187806,9.33896365 C-0.0317890522,8.12808944 -0.114932915,6.81769132 0.151127445,5.55705516 C0.417187806,4.24665704 1.06570993,3.06895746 1.99692119,2.10689302 C3.29396545,0.763320264 5.05661534,0.0168909554 6.91903786,0.000303637465 Z M7.06869681,13.270158 C5.4390771,13.2867453 3.90923003,12.7061892 2.72858718,11.6114262 L3.2607079,11.6114262 C3.46025318,11.6114262 3.60991213,11.445553 3.60991213,11.2630925 C3.60991213,11.0640447 3.4436244,10.9147589 3.2607079,10.9147589 C3.2607079,10.9147589 3.2607079,10.9147589 3.2607079,10.9147589 L1.86389101,10.9313462 C1.66434574,10.9313462 1.51468679,11.0972194 1.51468679,11.2796799 L1.53131556,12.6730146 C1.53131556,12.8720624 1.69760329,13.0213482 1.88051979,13.0213482 C1.88051979,13.0213482 1.88051979,13.0213482 1.88051979,13.0213482 C2.08006506,13.0213482 2.22972401,12.8554751 2.22972401,12.6730146 L2.22972401,12.1256331 C3.52676827,13.3365073 5.20627429,14 7.00218172,14 C7.03543926,14 7.05206804,14 7.08532558,14 C8.96437688,13.9834127 10.710398,13.2369834 12.0074422,11.8934106 C12.9386535,10.9313462 13.5871756,9.73705928 13.853236,8.44324848 C14.1192964,7.18261232 14.0195237,5.85562688 13.5871756,4.64475267 C13.5206605,4.46229217 13.3211153,4.36276826 13.1381988,4.42911753 C12.9552823,4.49546681 12.8555096,4.69451462 12.9220247,4.87697512 C13.7534634,7.14943768 13.2047139,9.63753538 11.5085791,11.3792038 C10.3279362,12.5734907 8.76483161,13.2535707 7.06869681,13.270158 Z M8.81471792,5.29165807 L8.81471792,6.08784933 L9.3135811,6.08784933 C9.51312637,6.08784933 9.66278532,6.25372251 9.66278532,6.43618301 L9.66278532,9.42190024 C9.66278532,9.62094806 9.4964976,9.77023392 9.3135811,9.77023392 L4.69078234,9.77023392 C4.49123707,9.77023392 4.34157812,9.60436074 4.34157812,9.42190024 L4.34157812,6.43618301 C4.34157812,6.23713519 4.50786584,6.08784933 4.69078234,6.08784933 L5.18964552,6.08784933 L5.18964552,5.29165807 C5.18964552,4.29641899 6.00445537,3.46705309 7.01881049,3.46705309 C8.03316562,3.46705309 8.81471792,4.29641899 8.81471792,5.29165807 Z M5.88805396,6.08784933 L8.11630948,6.08784933 L8.11630948,5.29165807 C8.11630948,4.6779273 7.6174463,4.18030776 7.00218172,4.18030776 C6.38691714,4.18030776 5.88805396,4.6779273 5.88805396,5.29165807 L5.88805396,6.08784933 Z" id="Shape"></path>
            </g>
        </g>
    </g>
</svg>

<svg xmlns="http://www.w3.org/2000/svg" width="14" height="14" xmlns:v="https://vecta.io/nano"><path d="M6.92 0c1.813-.017 3.525.647 4.856 1.874v-.547a.34.34 0 0 1 .349-.348.34.34 0 0 1 .349.348L12.5 2.72a.34.34 0 0 1-.349.348l-1.397.017a.34.34 0 0 1-.349-.348.34.34 0 0 1 .349-.348h.532c-1.18-1.095-2.7-1.675-4.34-1.66-1.696-.017-3.26.663-4.44 1.858C.8 4.33.25 6.818 1.082 9.107c.067.182-.033.382-.216.448-.033.017-.083.017-.116.017-.15 0-.283-.083-.333-.232a6.82 6.82 0 0 1-.266-3.782c.266-1.3.915-2.488 1.846-3.45C3.294.763 5.057.017 6.92 0zm.15 13.27c-1.63.017-3.16-.564-4.34-1.66h.532a.35.35 0 0 0 .349-.348.35.35 0 0 0-.349-.348l-1.397.017a.35.35 0 0 0-.349.348l.017 1.393a.35.35 0 0 0 .349.348.35.35 0 0 0 .349-.348v-.547C3.527 13.337 5.206 14 7.002 14h.083c1.88-.017 3.625-.763 4.922-2.107.93-.962 1.58-2.156 1.846-3.45.266-1.26.166-2.588-.266-3.798-.067-.182-.266-.282-.45-.216s-.283.265-.216.448c.83 2.272.283 4.76-1.413 6.502a6.28 6.28 0 0 1-4.44 1.891zm1.746-7.978v.796h.5a.35.35 0 0 1 .349.348v2.986a.35.35 0 0 1-.349.348H4.69a.35.35 0 0 1-.349-.348V6.436a.35.35 0 0 1 .349-.348h.5v-.796c0-.995.815-1.825 1.83-1.825s1.796.83 1.796 1.825zm-2.927.796h2.228v-.796c0-.614-.5-1.11-1.114-1.11s-1.114.498-1.114 1.11v.796z" fill="#9b9b9b"/></svg>
